svg/buy-me-a-coffee-twotone.svg

<svg xmlns="http://www.w3.org/2000/svg" width="24" height="24" viewBox="0 0 24 24">
	<defs>
		<mask id="SVGjNNbJdjx">
			<path d="M5 6c0 -2 2 0 6.5 0c4.5 0 7.5 -2 7.5 0l0 1c0 1.5 -2 2 -6.5 2c-4.5 0 -7.5 0 -7.5 -2l0 -1Z" fill="#fff" />
			<path d="M4 4h16v5h-16Z" fill="#000">
				<animate attributeName="d" begin="0.4s" dur="0.4s" fill="freeze" to="M4 4h0v5h0Z" />
			</path>
		</mask>
		<mask id="SVGfPK4GchK">
			<path d="M10.13 18.15c-0.09 -0.86 -0.72 -6.17 -0.72 -6.17c0 0 1.94 0.33 3.1 -0.25c1.16 -0.57 2.48 -0.73 2.48 -0.73c0 0 -0.58 6.96 -0.63 7.46c-0.05 0.5 -0.9 0.84 -1.4 0.84l-1.72 0c-0.5 0 -1.02 -0.3 -1.11 -1.15Z" fill="#fff" fill-opacity="0.3" />
			<path d="M8 10h8v10h-8Z" fill="#000">
				<animate attributeName="d" begin="1s" dur="0.4s" fill="freeze" to="M8 10h8v0h-8Z" />
			</path>
		</mask>
	</defs>
	<g fill="none" stroke="currentColor" stroke-linecap="round" stroke-linejoin="round" stroke-width="2">
		<path d="M7.5 10.5c0 0 0.83 6.93 1 8.5c0.17 1.57 1.5 2 2.5 2l2 0c1.5 0 2.88 -1.14 3 -2c0.13 -0.86 1 -12 1 -12" stroke-dasharray="32">
			<animate attributeName="stroke-dashoffset" dur="0.4s" fill="freeze" values="32;0" />
		</path>
		<path d="M8 4c1.1 -0.57 2 -1 4 -1c2 0 4.5 0.5 4.5 3" stroke-dasharray="14" stroke-dashoffset="14">
			<animate attributeName="stroke-dashoffset" begin="0.8s" dur="0.2s" fill="freeze" to="0" />
		</path>
	</g>
	<g fill="currentColor">
		<path d="M0 0h24v24H0z" mask="url(#SVGjNNbJdjx)" />
		<path d="M0 0h24v24H0z" mask="url(#SVGfPK4GchK)" />
	</g>
</svg>

<svg xmlns="http://www.w3.org/2000/svg" width="24" height="24" viewBox="0 0 24 24">
	<defs>
		<mask id="buy-coffee-mask">
			<path d="M5 6C5 4 7 6 11.5 6C16 6 19 4 19 6L19 7C19 8.5 17 9 12.5 9C8 9 5 9 5 7L5 6Z" fill="#fff" />
		</mask>
		<mask id="buy-coffee-mask2">
			<path d="M10.125 18.15C10.04 17.29 9.4 11.98 9.4 11.98C9.4 11.98 11.34 12.31 12.5 11.73C13.66 11.16 14.98 11 14.98 11C14.98 11 14.4 17.96 14.35 18.46C14.3 18.96 13.45 19.3 12.95 19.3L11.23 19.3C10.73 19.3 10.21 19 10.125 18.15Z" fill="#fff" />
		</mask>
	</defs>
	<g fill="none" stroke="currentColor" stroke-width="2" stroke-linecap="round" stroke-linejoin="round">
		<path d="M7.5 10.5c0 0 0.83 6.93 1 8.5c0.17 1.57 1.5 2 2.5 2l2 0c1.5 0 2.88 -1.14 3 -2c0.13 -0.86 1 -12 1 -12" stroke-dasharray="32" stroke-dashoffset="32">
			<animate attributeName="stroke-dashoffset" values="32;0" dur="0.4s" fill="freeze" />
		</path>
		<path d="M8 4c1.1 -0.57 2 -1 4 -1c2 0 4.5 0.5 4.5 3" stroke-dasharray="12" stroke-dashoffset="12">
			<animate attributeName="stroke-dashoffset" values="12;0" begin="0.8s" dur="0.2s" fill="freeze" />
		</path>
	</g>
	<rect x="20" y="4" width="16" height="5" fill="currentColor" mask="url(#buy-coffee-mask)">
		<animate attributeName="x" values="20;4" begin="0.4s" dur="0.4s" fill="freeze" />
	</rect>
	<rect x="8" y="20" width="8" height="10" fill="currentColor" mask="url(#buy-coffee-mask2)" fill-opacity="0.3">
		<animate attributeName="y" values="20;10" begin="1s" dur="0.4s" fill="freeze" />
	</rect>
</svg>
